src/svg/icons/magicWand.svg

<svg viewBox="0 0 20 20"><path d="M3.7 5.1c.4.4 1 .4 1.4 0s.4-1 0-1.4L3.6 2.2c-.4-.4-1-.4-1.4 0s-.4 1 0 1.4l1.5 1.5zM4 7.6c0-.6-.5-1-1-1H1c-.6 0-1 .4-1 1s.4 1 1 1h2c.6 0 1-.5 1-1zM7.6 4c.5 0 1-.5 1-1V1c0-.6-.4-1-1-1s-1 .4-1 1v2c0 .6.5 1 1 1zm-4 6l-1.4 1.4c-.4.4-.4 1 0 1.4s1 .4 1.4 0L5 11.4c.4-.4.4-1 0-1.4-.3-.4-1-.4-1.4 0zm7.9-5l1.4-1.4c.4-.4.4-1 0-1.4s-1-.4-1.4 0l-1.4 1.4c-.4.4-.4 1 0 1.4.3.4 1 .4 1.4 0zm8.2 11.2L8.6 5.1c-.2-.2-.4-.3-.7-.3h-.2c-.3 0-.5.1-.7.3L5.1 7c-.2.1-.3.4-.3.7v.2c0 .3.1.5.3.7l11.1 11.1c.2.2.4.3.7.3h.2c.3 0 .5-.1.7-.3l1.8-1.8c.2-.2.3-.4.3-.7V17c.1-.4-.1-.6-.2-.8zm-10.8-8l-.7.7-1.1-1.1.7-.7 1.1 1.1zm.7 2.1l.7-.7 7.4 7.4-.7.6-7.4-7.3z"/></svg>

<?xml version="1.0" encoding="utf-8"?>
<!-- Generator: Adobe Illustrator 20.1.0, SVG Export Plug-In . SVG Version: 6.00 Build 0)  -->
<svg version="1.1" id="Calque_1" xmlns="http://www.w3.org/2000/svg" xmlns:xlink="http://www.w3.org/1999/xlink" x="0px" y="0px"
	 viewBox="0 0 20 20" style="enable-background:new 0 0 20 20;" xml:space="preserve">
<style type="text/css">
	.st0{fill:#3A434C;}
</style>
<path class="st0" d="M3.7,5.1c0.4,0.4,1,0.4,1.4,0s0.4-1,0-1.4L3.6,2.2c-0.4-0.4-1-0.4-1.4,0s-0.4,1,0,1.4L3.7,5.1z"/>
<path class="st0" d="M4,7.6c0-0.6-0.5-1-1-1H1c-0.6,0-1,0.4-1,1s0.4,1,1,1h2C3.6,8.6,4,8.1,4,7.6z"/>
<path class="st0" d="M7.6,4c0.5,0,1-0.5,1-1V1c0-0.6-0.4-1-1-1s-1,0.4-1,1v2C6.6,3.6,7.1,4,7.6,4z"/>
<path class="st0" d="M3.6,10l-1.4,1.4c-0.4,0.4-0.4,1,0,1.4s1,0.4,1.4,0L5,11.4c0.4-0.4,0.4-1,0-1.4C4.7,9.6,4,9.6,3.6,10z"/>
<path class="st0" d="M11.5,5l1.4-1.4c0.4-0.4,0.4-1,0-1.4s-1-0.4-1.4,0l-1.4,1.4c-0.4,0.4-0.4,1,0,1.4C10.4,5.4,11.1,5.4,11.5,5z"/>
<path class="st0" d="M19.7,16.2L8.6,5.1C8.4,4.9,8.2,4.8,7.9,4.8H7.7c-0.3,0-0.5,0.1-0.7,0.3L5.1,7C4.9,7.1,4.8,7.4,4.8,7.7v0.2
	c0,0.3,0.1,0.5,0.3,0.7l11.1,11.1c0.2,0.2,0.4,0.3,0.7,0.3h0.2c0.3,0,0.5-0.1,0.7-0.3l1.8-1.8c0.2-0.2,0.3-0.4,0.3-0.7v-0.2
	C20,16.6,19.8,16.4,19.7,16.2z M8.9,8.2L8.2,8.9L7.1,7.8l0.7-0.7L8.9,8.2z M9.6,10.3l0.7-0.7l7.4,7.4L17,17.6L9.6,10.3z"/>
</svg>
